!!!OTL: Lied auf  Magdeburges Belagerung. (1551.)
!!!ARE: Europa, Mitteleuropa, Deutschland
!!!SCT: A0406
!!!TXL: @@NDS
!!!YEM: Copyright 1995, estate of Helmut Schaffrath.
**kern	**text
!! Mixed meters:  4/2; 6/2
*M6/2yy	*
*clefC5	*
*k[b-]	*
*C:mix	*
=1	=1
!LO:TX:a:t=mixolyd.	!
1ryy	.
2ryy	.
{2C	Nun
2C	hört
2C	von
=2	=2
*lig	*
2.F	mir
4G	.
2A	.
*Xlig	*
2B-	ein
2G	new
2G	ge-
=3	=3
1F	-dicht,
2r}	.
{2F/	wie
2D	vns
2F/	der
=4	=4
1G	Bapſt
2E	hat
2F/	ʒu-
1D	-ge-
=5	=5
1C	-richt
2r}	.
{2c	ein
2G	ſpil
2A	in
=6	=6
*M4/2	*
*lig	*
2.B-	Deut-
4A	.
4G	.
4F	.
*Xlig	*
2B-	-ſchen
=7	=7
1A	lan-
1G	-den;
=8	=8
2r}	.
{2C	er
2D	badt
2E	ſich
=9	=9
2F	in
2G	der
2A	Deu-
2B-	-tʒſchen
=10	=10
*M6/2	*
1c	bluth,
2r}	.
{2G	gott
2B-	macht
2A	jhn
=11	=11
1G	bald
2E	ʒu
2.F/	ſchan-
4E	.
4D	.
4C	.
=12	=12
1D	.
0C/ll}	-de.
==	==
!!!GTL: Einige historisch-politische Lieder
!!!AGN: Romanze, Ballade, Lied, Kriegslied
!! Dresdner Cod. M. 53. 16. Jh.
!!!ONB: ESAC (Essen Associative Code) Database: ALTDEU
!!!AMT: irregular
!!!AIN: vox
!!!EED: Helmut Schaffrath
!!!EEV: 1.0
!!!RDF**kern: l = terminal long
!!!AMD: Mixolydian
!!!URL-scan: https://rosdok.uni-rostock.de/mcrviewer/recordIdentifier/rosdok_ppn738218359/iview2/phys_0578.iview2?x=203.01152644966055&y=2095.470633290708&scale=0.7083010262257697&rotation=0&layout=singlePageLayout
!!!ENC: Anna Maria Matuszewska
!!!EEV: 2024/15/03
*-	*-
